symbols/web/filter_frames/materialsymbolsoutlined/filter_frames_wght200gradN25_40px.svg

<svg xmlns="http://www.w3.org/2000/svg" height="40" width="40"><path d="M6.667 35.625q-1 0-1.709-.708-.708-.709-.708-1.667V9.833q0-.958.708-1.666.709-.709 1.709-.709h7.75L20 1.875l5.583 5.583h7.792q.958 0 1.667.709.708.708.708 1.666V33.25q0 .958-.708 1.667-.709.708-1.667.708Zm0-1.375h26.708q.458 0 .75-.292.292-.291.292-.708V9.833q0-.458-.292-.729-.292-.271-.75-.271h-8.333L20 3.792l-5.042 5.041H6.667q-.459 0-.75.271-.292.271-.292.729V33.25q0 .417.292.708.291.292.75.292Zm4.25-5.292V14.125h18.208v14.833Zm1.333-1.333V15.458v12.167Zm0 0h15.542V15.458H12.25Z"/></svg>

<svg xmlns="http://www.w3.org/2000/svg" height="40" width="40"><path d="M6.667 35.625Q5.667 35.625 4.958 34.917Q4.25 34.208 4.25 33.25V9.833Q4.25 8.875 4.958 8.167Q5.667 7.458 6.667 7.458H14.417L20 1.875L25.583 7.458H33.375Q34.333 7.458 35.042 8.167Q35.75 8.875 35.75 9.833V33.25Q35.75 34.208 35.042 34.917Q34.333 35.625 33.375 35.625ZM6.667 34.25H33.375Q33.833 34.25 34.125 33.958Q34.417 33.667 34.417 33.25V9.833Q34.417 9.375 34.125 9.104Q33.833 8.833 33.375 8.833H25.042L20 3.792L14.958 8.833H6.667Q6.208 8.833 5.917 9.104Q5.625 9.375 5.625 9.833V33.25Q5.625 33.667 5.917 33.958Q6.208 34.25 6.667 34.25ZM10.917 28.958V14.125H29.125V28.958ZM12.25 27.625V15.458V27.625ZM12.25 27.625H27.792V15.458H12.25Z"/></svg>
